lib/flags/gh-ghana.svg

<svg xmlns="http://www.w3.org/2000/svg" fill="none" aria-hidden="true" viewBox="0 0 42 30"><g id="Country=GH - Ghana, Size=sm (36x24)" filter="url(#filter0_dd_91_28113)"><g clip-path="url(#clip0_91_28113)"><g id="flag"><mask id="mask0_91_28113" width="36" height="24" x="3" y="2" maskUnits="userSpaceOnUse" style="mask-type:alpha"><rect id="mask" width="36" height="24" x="3" y="2" fill="white"/></mask><g mask="url(#mask0_91_28113)"><g id="contents"><path id="bottom" fill="#5EAA22" fill-rule="evenodd" d="M3 18H39V26H3V18Z" clip-rule="evenodd"/><path id="middle" fill="#FECA00" fill-rule="evenodd" d="M3 10H39V18H3V10Z" clip-rule="evenodd"/><path id="top" fill="#E11C1B" fill-rule="evenodd" d="M3 2H39V10H3V2Z" clip-rule="evenodd"/><path id="Star 5" fill="#1D1D1D" fill-rule="evenodd" d="M21.085 16.4903L17.1636 18.908L18.4167 14.7671L15.1055 12.1218L19.4359 11.9788L21.085 7.88403L22.7341 11.9788H27.0392L23.7533 14.7671L25.1917 18.6636L21.085 16.4903Z" clip-rule="evenodd"/></g></g></g></g></g><defs><filter id="filter0_dd_91_28113" width="42" height="30" x="0" y="0" color-interpolation-filters="sRGB" filterUnits="userSpaceOnUse"><feFlood flood-opacity="0" result="BackgroundImageFix"/><feColorMatrix in="SourceAlpha" result="hardAlpha" values="0 0 0 0 0 0 0 0 0 0 0 0 0 0 0 0 0 0 127 0"/><feOffset dy="1"/><feGaussianBlur stdDeviation="1"/><feColorMatrix values="0 0 0 0 0.0627451 0 0 0 0 0.0941176 0 0 0 0 0.156863 0 0 0 0.06 0"/><feBlend in2="BackgroundImageFix" result="effect1_dropShadow_91_28113"/><feColorMatrix in="SourceAlpha" result="hardAlpha" values="0 0 0 0 0 0 0 0 0 0 0 0 0 0 0 0 0 0 127 0"/><feOffset dy="1"/><feGaussianBlur stdDeviation="1.5"/><feColorMatrix values="0 0 0 0 0.0627451 0 0 0 0 0.0941176 0 0 0 0 0.156863 0 0 0 0.1 0"/><feBlend in2="effect1_dropShadow_91_28113" result="effect2_dropShadow_91_28113"/><feBlend in="SourceGraphic" in2="effect2_dropShadow_91_28113" result="shape"/></filter><clipPath id="clip0_91_28113"><rect width="36" height="24" x="3" y="2" fill="white" rx="2"/></clipPath></defs></svg>

<svg xmlns="http://www.w3.org/2000/svg" fill="none" aria-hidden="true" viewBox="0 0 42 30"><g filter="url(#a)"><g clip-path="url(#b)"><mask id="c" width="36" height="24" x="3" y="2" maskUnits="userSpaceOnUse" style="mask-type:alpha"><path fill="#fff" d="M3 2h36v24H3z"/></mask><g fill-rule="evenodd" clip-rule="evenodd" mask="url(#c)"><path fill="#5EAA22" d="M3 18h36v8H3v-8Z"/><path fill="#FECA00" d="M3 10h36v8H3v-8Z"/><path fill="#E11C1B" d="M3 2h36v8H3V2Z"/><path fill="#1D1D1D" d="m21.085 16.49-3.921 2.418 1.253-4.14-3.312-2.646 4.33-.143 1.65-4.095 1.65 4.095h4.304l-3.286 2.788 1.439 3.897-4.107-2.174Z"/></g></g></g><defs><clipPath id="b"><rect width="36" height="24" x="3" y="2" fill="#fff" rx="2"/></clipPath><filter id="a" width="42" height="30" x="0" y="0" color-interpolation-filters="sRGB" filterUnits="userSpaceOnUse"><feFlood flood-opacity="0" result="BackgroundImageFix"/><feColorMatrix in="SourceAlpha" result="hardAlpha" values="0 0 0 0 0 0 0 0 0 0 0 0 0 0 0 0 0 0 127 0"/><feOffset dy="1"/><feGaussianBlur stdDeviation="1"/><feColorMatrix values="0 0 0 0 0.0627451 0 0 0 0 0.0941176 0 0 0 0 0.156863 0 0 0 0.06 0"/><feBlend in2="BackgroundImageFix" result="effect1_dropShadow_91_28113"/><feColorMatrix in="SourceAlpha" result="hardAlpha" values="0 0 0 0 0 0 0 0 0 0 0 0 0 0 0 0 0 0 127 0"/><feOffset dy="1"/><feGaussianBlur stdDeviation="1.5"/><feColorMatrix values="0 0 0 0 0.0627451 0 0 0 0 0.0941176 0 0 0 0 0.156863 0 0 0 0.1 0"/><feBlend in2="effect1_dropShadow_91_28113" result="effect2_dropShadow_91_28113"/><feBlend in="SourceGraphic" in2="effect2_dropShadow_91_28113" result="shape"/></filter></defs></svg>
